src/icons/io.github.kolunmi.Bazaar.google.svg

<svg width="128" height="128" viewBox="0 0 128 128" fill="none" xmlns="http://www.w3.org/2000/svg">
<path d="M100 11.9999H28C19.1634 11.9999 12 19.1633 12 27.9999V100C12 108.837 19.1634 116 28 116H100C108.837 116 116 108.837 116 100V27.9999C116 19.1633 108.837 11.9999 100 11.9999Z" fill="#F6F5F4"/>
<path d="M99.27 63.0001C99.27 60.6708 99.0555 58.3956 98.6592 56.1895H95.8647H84.9634H64.7297V69.8107H85.2637C83.9315 74.5258 81.1298 78.5581 77.3832 81.3422C77.173 87.8944 81.871 89.5383 87.9784 89.7728C94.9621 83.1837 99.27 73.6322 99.27 63.0001Z" fill="#3284FF"/>
<path d="M65.1725 41.5948C70.3349 41.5948 74.9849 43.4636 78.5869 46.5754L88.3927 36.6297C82.2696 30.6574 74.0031 27.0001 64.7298 27.0001C50.909 27.0001 38.5855 35.118 32.5874 46.9334C33.3871 55.7758 39.2853 55.441 44.6252 56.1111C47.7027 47.6497 55.8816 41.5948 65.1725 41.5948Z" fill="#FF3424"/>
<path d="M32.8126 79.5016C43.4993 80.4337 45.7054 76.3772 44.4204 70.2672C43.7137 68.1311 43.3246 65.8541 43.3246 63.4868C43.3246 60.8983 43.7871 58.416 44.6252 56.1111L32.5874 46.9335C30.1319 51.7707 28.7299 57.2237 28.7299 63.0001C28.7299 68.9499 30.2178 74.5569 32.8126 79.5016Z" fill="#FFBB00"/>
<path d="M44.4205 70.267L32.8127 79.5014C38.8903 91.0804 51.0793 99.0001 64.7299 99.0001C73.7944 99.0001 81.8993 95.5081 87.9784 89.7729L77.3832 81.342C73.9727 83.8761 69.782 85.3783 65.1726 85.3783C55.6651 85.3783 47.3241 79.0389 44.4205 70.267Z" fill="#26B14C"/>
</svg>

<svg xmlns="http://www.w3.org/2000/svg" width="128" height="128" fill="none" viewBox="0 0 128 128"><path fill="#f6f5f4" d="M100 12H28c-8.837 0-16 7.163-16 16v72c0 8.837 7.163 16 16 16h72c8.837 0 16-7.163 16-16V28c0-8.837-7.163-16-16-16"/><path fill="#3284ff" d="M99.27 63c0-2.33-.215-4.604-.61-6.81H64.73v13.62h20.534c-1.332 4.716-4.134 8.748-7.88 11.532-.211 6.552 4.487 8.196 10.594 8.43C94.962 83.185 99.27 73.633 99.27 63"/><path fill="#ff3424" d="M65.173 41.595c5.162 0 9.812 1.869 13.414 4.98l9.806-9.945C82.27 30.657 74.003 27 64.73 27c-13.821 0-26.144 8.118-32.143 19.933.8 8.843 6.698 8.508 12.038 9.178 3.078-8.461 11.257-14.516 20.548-14.516"/><path fill="#fb0" d="M32.813 79.502c10.686.932 12.892-3.125 11.607-9.235a21.54 21.54 0 0 1 .205-14.156l-12.038-9.177A35.4 35.4 0 0 0 28.73 63c0 5.95 1.488 11.557 4.083 16.502"/><path fill="#26b14c" d="m44.42 70.267-11.607 9.234c6.077 11.58 18.266 19.5 31.917 19.5 9.064 0 17.17-3.493 23.248-9.228l-10.595-8.431a20.33 20.33 0 0 1-12.21 4.036c-9.508 0-17.849-6.34-20.753-15.111"/></svg>
